raw/symbols/knc.svg

<svg width="42" height="42" viewBox="0 0 42 42" fill="none" xmlns="http://www.w3.org/2000/svg">
<circle cx="21" cy="21" r="21" fill="#65C8A1"/>
<path fill-rule="evenodd" clip-rule="evenodd" d="M22.6339 6.65777L29.7707 12.2579C29.8446 12.3135 29.9038 12.3886 29.9426 12.4757C29.9815 12.5629 29.9985 12.6593 29.9922 12.7556C29.986 12.8519 29.9565 12.9448 29.9067 13.0254C29.8569 13.106 29.7885 13.1716 29.708 13.2157L19.1344 19.4529L21.7403 6.97854C21.7648 6.88267 21.8111 6.79472 21.8751 6.72245C21.939 6.65018 22.0187 6.5958 22.107 6.5641C22.1953 6.53241 22.2895 6.52438 22.3814 6.54071C22.4733 6.55704 22.56 6.59724 22.6339 6.65777ZM29.9918 27.8469L19.5519 21.4671L29.9918 15.0829C30.0752 15.0278 30.1709 14.9976 30.2689 14.9955C30.367 14.9934 30.4637 15.0194 30.5491 15.0709C30.6345 15.1223 30.7053 15.1973 30.7542 15.288C30.8031 15.3787 30.8283 15.4817 30.827 15.5863V27.339C30.8277 27.4434 30.8022 27.5462 30.7533 27.6366C30.7044 27.7271 30.6338 27.802 30.5488 27.8538C30.4637 27.9055 30.3673 27.9321 30.2694 27.9309C30.1715 27.9297 30.0757 27.9007 29.9918 27.8469ZM22.6256 36.2713L29.7707 30.6712C29.8456 30.615 29.9057 30.5393 29.9453 30.4512C29.9849 30.3631 30.0026 30.2656 29.9967 30.1681C29.9909 30.0706 29.9616 29.9764 29.9118 29.8944C29.862 29.8124 29.7933 29.7455 29.7122 29.7L19.1344 23.4628L21.7403 35.9372C21.7619 36.0341 21.8057 36.1238 21.8679 36.1982C21.93 36.2725 22.0085 36.3293 22.0962 36.3633C22.184 36.3973 22.2783 36.4075 22.3707 36.393C22.4631 36.3785 22.5507 36.3398 22.6256 36.2802V36.2713ZM19.5523 7.69226L16.8379 21.2359L19.5189 34.7884C19.5397 34.9006 19.5285 35.0169 19.487 35.1224C19.4454 35.2278 19.3753 35.3176 19.2856 35.3803C19.1959 35.443 19.0907 35.4757 18.9835 35.4742C18.8762 35.4727 18.7719 35.4371 18.6837 35.372L11.7641 29.7006C11.5858 29.5547 11.4419 29.3663 11.344 29.1505C11.2461 28.9347 11.1969 28.6974 11.2004 28.4577V14.023C11.1995 13.7863 11.25 13.5525 11.3478 13.34C11.4456 13.1275 11.5881 12.9419 11.7641 12.7978L18.7171 7.10864C18.8053 7.04352 18.9097 7.00795 19.0169 7.00648C19.1241 7.00501 19.2293 7.0377 19.319 7.10038C19.4087 7.16306 19.4788 7.25286 19.5204 7.35831C19.5619 7.46375 19.5731 7.58003 19.5523 7.69226Z" fill="#F3F3F3"/>
</svg>

<svg xmlns="http://www.w3.org/2000/svg" width="42" height="42" fill="none"><circle cx="21" cy="21" r="21" fill="#65C8A1"/><path fill="#F3F3F3" fill-rule="evenodd" d="m22.634 6.658 7.137 5.6c.074.056.133.13.172.218a.593.593 0 0 1-.036.55.539.539 0 0 1-.199.19l-10.574 6.237L21.74 6.979a.616.616 0 0 1 .135-.257.565.565 0 0 1 .232-.158.534.534 0 0 1 .527.094Zm7.358 21.189-10.44-6.38 10.44-6.384a.523.523 0 0 1 .557-.012.566.566 0 0 1 .205.217c.05.09.074.194.073.298V27.34a.618.618 0 0 1-.074.298.572.572 0 0 1-.204.217.525.525 0 0 1-.557-.007Zm-7.366 8.424 7.145-5.6a.563.563 0 0 0 .174-.22.603.603 0 0 0-.033-.557.548.548 0 0 0-.2-.194l-10.578-6.237 2.606 12.474a.616.616 0 0 0 .128.261c.062.075.14.131.228.165a.53.53 0 0 0 .53-.083v-.009ZM19.552 7.692l-2.714 13.544 2.68 13.552a.61.61 0 0 1-.031.334.568.568 0 0 1-.201.258.514.514 0 0 1-.602-.008l-6.92-5.671a1.522 1.522 0 0 1-.42-.55 1.622 1.622 0 0 1-.144-.693V14.023c0-.237.05-.47.148-.683.098-.213.24-.398.416-.542l6.953-5.69a.516.516 0 0 1 .602-.008c.09.063.16.153.201.258a.61.61 0 0 1 .032.334Z" clip-rule="evenodd"/></svg>
